!!!!SEGMENT: 063-1-BR-001.krn
!!!COM: Chopin, Fryderyk
!!!OTL: TROIS MAZURKAS.
!!!OPS: Op. 63. No. 1.
!!!PTL: 3 MAZURKAS POUR PIANO dédiées à Madame la Comtesse Laure Czosnowska
!!!PPR: Brandus & Co.
!!!PPP: Paris
!!!NIFC-rismID:
!!!NIFC-shelfmark:
!!!OMD: Vivace.
**kern	**kern	**dynam
*part1	*part1	*part1
*staff2	*staff1	*
*clefF4	*clefG2	*
*k[f#c#g#d#a#]	*k[f#c#g#d#a#]	*
*B:	*B:	*
*M3/4	*M3/4	*
*	*	*
=1-	=1-	=1-
*ped	*	*
8BB 8BBB\	8d#'> 8B< 8F#<	fz
8rGG	8r	.
4rGG	(>8F#<L	.
*Xped	*	*
.	8B<	<
4rGG	8d#	.
.	8eJ 8c#	.
=2	=2	=2
4r	8e#XL 8c##X)	[
.	16re	.
.	(>16G#<Jk	.
(4G# 4BB	4e# 4c##	<
4F# 4BB	4f# 4d#	.
=3	=3	=3
*ped	*	*
!	!LO:TX:t=P:problem:pionowy łuk	!
4BB) 4EE	8b) 8e 8G#	.
.	8r	[
4r	(>8BL	.
.	8b 8g#	.
4B 4E^	8a# 8f#	.
*Xped	*	*
.	.	.
.	8g#J 8e)	.
=4	=4	=4
4r	8e#XL 8c##X	.
.	16r	.
.	16G#Jk	.
4G# 4BB	(>4e# 4c##	.
4F# 4BB	4f# 4d#	.
=5	=5	=5
*^	*	*
*ped	*	*	*
2ryy	8FF# 8FFF#	8g#) 8e 8A#<^<	.
.	8rGG	8r	.
.	4rGG	(>8F#<L	.
*Xped	*	*	*
.	.	.	.
.	.	8g# 8e	.
4A#	4F# 4FF#	8f#M< 8d#	.
.	.	8eJ 8c#)	.
*v	*v	*	*
!!LO:LB:g=original
=6	=6	=6
4rBB	8c##XL 8A#	.
.	16re	.
.	(>16D#<Jk	.
4GG#\	4c## 4A#	.
4D# 4GG#\	4d# 4B 4F#<)	.
=7	=7	=7
*ped	*	*
8CC#	8d#'> 8B	.
8rBB	8r	.
!LO:TX:t=P:problem:note-position	!	!
4G# 4C#	8E#<XL	.
.	8d# 8B	.
*Xped	*	*
4rAA	8d#m< 8B	.
.	16rf	.
.	16c#Jk 16B	.
=8	=8	=8
*ped	*	*
!LO:TX:a:i:t=cresc.	!	!
4FF#	8g#L (<8e	<
.	8bJ 8g#)	.
4F#	4c# 4A#	.
4c# 4F#	4g# 4e 4A#	.
*Xped	*	*
.	.	[
=9	=9	=9
*ped	*	*
4BB 4BBB	4dd# 4f# 4d#	f
4d# 4B 4F#	(>8f#L	.
.	8dd# 8b	.
4r	8.ee 8.cc#	.
*Xped	*	*
.	.	.
.	16ee#XJk 16cc##X	.
=10	=10	=10
*ped	*	*
4BB	8ee#XL 8cc##X	.
.	8g#J	.
4c##X 4B 4G#	4ee# 4cc##	.
4d# 4B 4F#	4ff#) 4dd# 4f#	.
*Xped	*	*
.	.	.
!!LO:LB:g=original
=11	=11	=11
!	!LO:TX:t=P:problem:pionowy łuk	!
.	8qqg#/	.
*ped	*	*
4E 4EE	4bb 4ee 4g#	.
4g# 4e 4B 4G#	(8bL	.
.	8bb 8gg#	.
4r	8aa#m 8ff#	.
*Xped	*	*
.	.	.
.	8gg#J 8ee	.
=12	=12	=12
*ped	*	*
4BB	8ee#XL) 8cc##X	.
.	16r	.
.	(16g#Jk	.
*Xped	*	*
4c##X 4B 4G#	4ee#) 4cc##	.
4d# 4B 4F#	4ff# 4dd# 4f#	.
=13	=13	=13
*ped	*	*
4F# 4FF#	4gg# 4ee 4a#	.
4e 4c# 4F#	(8f#L	.
.	8gg# 8ee 8a#	.
*Xped	*	*
4r	8ff#M 8dd# 8a#)	.
.	16r	.
.	16eeJk 16cc#	.
=14	=14	=14
*ped	*	*
4GG#	(>8cc##XL 8a#	.
.	8d#J	.
*Xped	*	*
4B 4G# 4D#	4cc## 4a#/	.
4d# 4B 4G# 4D#	4dd# 4b 4f#)	.
=15	=15	=15
*ped	*	*
4C# 4CC#	(>4dd# 4b 4e#X	.
4g# 4c# 4G#	8e#L	.
.	8dd# 8b	.
*Xped	*	*
4r	8dd#m 8b^<	.
.	8cc#J	.
!!LO:LB:g=original
=16	=16	=16
*	*^	*
!	!	!LO:TX:t=P:problem:accidental-position	!
4FF#	8b#XL)	8bnL	<
.	16rg	16rff	.
.	(>16cc#Jk	16a#Jk	.
4c# 4F#	[2ff#	8f#L	.
.	.	8a#	.
4c# 4F#	.	8b	.
.	.	8dd#J	[p
=17	=17	=17	=17
4g# 4c# 4F#	8ff#L]	4cc#	.
.	8ee#X	.	.
4g# 4c# 4F#	8dd#	4b	.
.	8ee#	.	.
4c# 4F#	8ff#	4a#	.
.	8dd#J	.	.
=18	=18	=18	=18
4g# 4c# 4F#	8cc#L	4b	.
.	8ee#XJ	.	.
4c# 4F#	4.ff#	4a#	.
4c# 4F#	.	4a#	.
.	8gg#	.	.
=19	=19	=19	=19
4g# 4c# 4F#	8ff#L	4b	.
.	8ee#X	.	.
4g# 4c# 4F#	8dd#	4b	.
.	8ee#	.	.
4c# 4F#	8ff#	4a#	.
.	8dd#J	.	.
=20	=20	=20	=20
4g# 4c# 4F#	8cc#L	4b	.
.	8ee#XJ	.	.
4c# 4F#	4.ff#	4a#	>
4c# 4F#	.	4an	.
.	8een	.	.
!!LO:PB:g=original
=21	=21	=21	=21
4B	8eeL	4an	.
.	8dd#	.	.
4f# &N(4B	8cc#	4a	.
.	8dd#	.	.
4B 4E	8ee	4g#N)&	]
.	8cc#J	.	.
=22	=22	=22	=22
4f# &N(4B	8bL	4an	.
.	8dd#J	.	.
4B 4E	4.ee	4g#N)&	.
4B 4E	.	4g#	.
.	8dd#	.	.
=23	=23	=23	=23
4B-X	8ee-XL	4a-X	>
.	8ddn	.	.
4B- 4F-X	8cc#X	4a-	.
.	8dd	.	.
4B- 4E-X	8ee-	4gn	]
.	8cc-XJ	.	.
=24	=24	=24	=24
&N(4fn 4B-X	8b-XL)	4a-X	.
.	8ddnJ	.	.
!	!LO:TX:i:t=ten.	!LO:TX:t=P:problem=crescendo lub obrócony akcent	!LO:HP:a
4B- 4E-X	(2ee-X	4gnN)&	<[
.	.	.	.
4r	.	4rf	.
*	*v	*v	*
=25	=25	=25
*ped	*	*
4EE	4.dd#)/	>
4g#X> 4c#X 4Bn	.	.
.	(>8cc#L/	.
4r	8ee	.
*Xped	*	*
.	.	.
.	8dd#J	.
!!LO:LB:g=original
=26	=26	=26
2.r	8cc#L	.
.	8b	.
.	8a#	.
.	8b	.
.	8cc#	.
.	8g#J	]
=27	=27	=27
*ped	*	*
4FF#	4.f#)	<
4e 4A# 4F#	.	.
.	(>8g#L	.
4e 4A# 4F#	8f#	.
*Xped	*	*
.	8g#J	.
=28	=28	=28
*ped	*	*
4BB	8f#L	.
.	8a#	.
4d# 4B 4F#	8b	.
.	8dd#	.
4r	8gg#	.
*Xped	*	*
.	8ff#J	[
=29	=29	=29
*ped	*	*
4EE	4.dd#	>
4g# 4c# 4B	.	.
.	8cc#L	.
4r	8ee	.
.	8dd#J	.
=30	=30	=30
2.r	8cc#L\	.
.	8b	.
*Xped	*	*
.	8a#	.
.	8b	.
.	8cc#	.
.	8g#J	]
!!LO:LB:g=original
=31	=31	=31
4r	4.f#	.
4e 4A# 4F#	.	.
!	!LO:TX:t=dim_:problem:dynamics with extention lines	!LO:HP:b:t=dim
.	8g#L	>
4r	8f#	.
.	8cc#J	.
=32	=32	=32
2.r	8f#L	.
.	8g#	.
.	8f#	.
.	8cc#	.
.	8fn	.
.	8cc#J	.
*kcancel	*kcancel	*
=33	=33	=33
*k[f#c#g#]	*k[f#c#g#]	*
*	*^	*
4r	8eL	2ryy	] p
.	8cc#J	.	.
4r	2b)	.	.
4E'	.	4e'> 4d	.
=34	=34	=34	=34
4r	(8aL	2ryy	.
.	8f#J	.	.
4r	4g#	.	.
4E' 4AA	4a)	4c#'>	.
*	*v	*v	*
=35	=35	=35
*^	*	*
4r	2ryy	(8eL	.
.	.	8aJ	.
4r	.	2g#)	.
*ped	*	*	*
4d' 4G#	4EE'>	.	.
=36	=36	=36	=36
*Xped	*	*	*
2ryy	4r	(8f#L	.
.	.	8dJ	.
.	4r	4f#	.
4c#' 4A	4E 4AA'	4e)	.
*v	*v	*	*
!!LO:LB:g=original
=37	=37	=37
*	*^	*
4r	(>8eL	2ryy	.
.	8cc#J	.	.
4r	2b)	.	.
*ped	*	*	*
4E'	.	4e'> 4d	.
=38	=38	=38	=38
*Xped	*	*	*
.	.	.	.
4r	(>8aL	2ryy	.
.	8f#J	.	.
4r	4g#	.	.
4E' 4AA	4a)	4c#'>	.
=39	=39	=39	=39
4r	(>8eL	2ryy	.
.	8aJ	.	.
4r	2g#)	.	.
4C#'	.	4e'> 4c# 4G#	.
*	*v	*v	*
=40	=40	=40
4rAA	(>8f#L	.
.	8d#XJ	.
4GG#\'	4f# 4B#X< 4G#<	f
4C# 4CC#\	4e) 4c#^ 4G#<	.
.	.	.
=41	=41	=41
4rAA	(>8f#L	.
.	8d#XJ	.
4BB\	4f# 4B< 4A<	.
4E 4EE\	4e)^ 4B< 4G#<	.
.	.	.
=42	=42	=42
4rAA	(>8f#L	.
.	8d#XJ	.
4GG#\	4f# 4B#X< 4G#<	.
4C# 4CC#\	4e^) 4c#< 4G#<	.
.	.	.
!!LO:LB:g=original
=43	=43	=43
*	*^	*
4r	(>8eL	4r	p
.	8cc#J	.	.
4r	2b)	4r	.
*ped	*	*	*
4E'	.	4e'> 4d	.
=44	=44	=44	=44
*Xped	*	*	*
4r	(8aaL	4rf	.
.	8ff#J	.	.
4r	4gg#	4rf	.
4e' 4A	4aa)	4cc#'> 4a	.
*	*v	*v	*
=45	=45	=45
*^	*	*
2ryy	4r	(>8eL	.
.	.	8aJ	.
.	4r	2g#)	.
*ped	*	*	*
4d' 4G#	4E 4EE	.	.
*v	*v	*	*
=46	=46	=46
*	*^	*
*Xped	*	*	*
4r	(8ff#L	4rf	.
.	8ddJ	.	.
4r	4ff#	4rf	.
4e' 4A	4ee)	4cc# 4a	.
=47	=47	=47	=47
4r	(>8eL	4r	.
.	8cc#J	.	.
4r	2b)	4r	.
*ped	*	*	*
4E'	.	4e'> 4d	.
=48	=48	=48	=48
*Xped	*	*	*
4r	(8aaL	4rf	.
.	8ff#J	.	.
4r	4gg#	4rf	.
4e 4A	4aa)	4cc#'> 4a	.
!!LO:PB:g=original
=49	=49	=49	=49
4r	(>8eL	4r	.
.	8aJ	.	.
4r	2g#)	4r	.
4C#'	.	4e'> 4c# 4G#	.
*	*v	*v	*
=50	=50	=50
4rAA	(>8f#L	.
.	8d#XJ	.
4GG#\	4f# 4B#X< 4G#<	f
4C#\ 4CC#\	4e)^ 4c# 4G#<	.
.	.	.
=51	=51	=51
4rAA	(>8f#L	.
.	8d#XJ	.
4BB\	4f# 4B< 4A<	.
4E\ 4EE\	4e)^ 4B< 4G#<	.
.	.	.
=52	=52	=52
4rAA	(>8f#L	.
.	8d#XJ	.
4GG#\	4f# 4B#X< 4G#<	.
4C# 4CC#\	4e)^ 4c#< 4G#<	.
.	.	.
=53	=53	=53
*^	*	*
[2.F#	(4FF#	(>&(4e 4A#X	p
.	2BB)	2d#X 2B&)	.
=54	=54	=54	=54
2.F#_	(<8FF#L	&(4e 4A#X	.
.	8C#J	.	.
.	2BB)	2d#X 2B&)	.
!!LO:LB:g=original
=55	=55	=55	=55
2.F#]	(<8FF#L	&(4e 4A#X	.
.	8C#	.	.
.	8BB	4d#X 4B	.
.	8AA#X	.	.
.	8BB	4d# 4B&)	.
.	8GG#J	.	.
=56	=56	=56	=56
2.F#	8FF#L	&(4e 4A#X	.
.	8C#J)	.	.
.	4BB	2d#X 2B&))	.
.	4rAA	.	.
=57	=57	=57	=57
[2.G#	(4GG#	(>&(4f# 4B#X	.
.	2C#)	2e#X 2c#&)	.
=58	=58	=58	=58
2.G#_	8GG#L	&(4f# 4B#X	.
.	8D#XJ	.	.
.	2C#	2e#X 2c#&)	.
=59	=59	=59	=59
*	*	*^	*
2.G#_	(8GG#L	>12f#L	4B#X	.
.	.	12g#	.	.
.	8D#X	.	.	.
.	.	12f#J	.	.
.	8C#	4e#X	4c#	.
.	8BB#X	.	.	.
.	8C#	4e#	4c#	.
.	8AA#J	.	.	.
=60	=60	=60	=60	=60
2.G#]	8GG#L	4f#	4B#X	.
.	8D#XJ)	.	.	.
.	2C#	2e#X	2c#)	.
*	*	*v	*v	*
!!LO:LB:g=original
=61	=61	=61	=61
!	!	!LO:TX:t=dim_:problem:dynamics with extention lines	!LO:HP:t=dim
[2.c#	(4C#	(<4b 4e#X	>
.	2F#)	2a#X 2f#)	.
=62	=62	=62	=62
2.c#_	(8C#L	(4b 4e#X	.
.	8G#J	.	.
.	4.F#	2a#X 2f#)	.
.	8D#X)	.	.
=63	=63	=63	=63
*	*	*^	*
2.c#]	(8C#L	(>12bL	4e#X	.
.	.	12cc#	.	.
.	8G#	.	.	.
.	.	12bJ	.	.
.	8F#	4a#X	4f#	.
.	8E#X	.	.	.
.	8F#	4a#	4f#	.
.	8D#XJ	.	.	.
=64	=64	=64	=64	=64
2.c#	8C#L	12bL	4e#X	]
.	.	12cc#	.	.
.	8G#J)	.	.	.
.	.	12bJ	.	.
.	2F#	2a#X)	2f#	.
*v	*v	*	*	*
=65	=65	=65	=65
*	*	*^	*
(4F#	4ryy	(>4ee 4a#X/	[<2.f#\	.
2B)	2dd#X)	2b	.	.
=66	=66	=66	=66	=66
(>8F#L	(>12eeL	4a#X	2.f#\N_<	.
.	12ff#	.	.	.
8c#J	.	.	.	.
.	12eeJ	.	.	.
4.B	4dd#X	4b)	.	.
.	4r	4ryy	.	.
8G#	.	.	.	.
*	*v	*v	*v	*
!!LO:LB:g=original
=67	=67	=67
!	!LO:TX:t=P:problem:cresc. in hairpin	!
8f#>N]L 8F#	2.r	<
8G#	.	.
8F#	.	.
8E#X	.	.
8En	.	.
!LO:TX:a:i:t=cresc.	!	!
8D#XJ	.	.
=68	=68	=68
8C#L	2.r	.
8D#X	.	.
8C#	.	.
8BB	.	.
8AA#X	.	.
8GG#J	.	[
=69	=69	=69
*k[f#c#g#d#a#]	*k[f#c#g#d#a#]	*
4FF# 4FFF#)\	(>4F#</	fz
4rGG	8d#L 8B	.
.	8F#<	.
4rGG	8d# 8B	.
!	!LO:TX:t=cresc_:problem:dynamics with extention lines	!LO:HP:t=cresc
.	8eJ 8c#)	<
=70	=70	=70
4rGG	8e#XL 8c##X	.
.	16r	.
.	16G#<Jk	.
4FF# 4FFF#\	(>4e# 4c## 4G#<	.
4FF# 4FFF#\	4f# 4d# 4F#<	.
=71	=71	=71
*ped	*	*
!	!LO:TX:t=P:problem:pionowy łuk	!
4FF# 4FFF#\	4b) 4e 4G#<	[ fz <
4G# 4FF#\	(>8B<^>L	.
.	8b 8g# 8e	.
4r	8a#Xm< 8f#	.
*Xped	*	*
.	.	.
.	8g#J 8e)	.
!!LO:LB:g=original
=72	=72	=72
4r	8e#XL 8c##X	.
.	16r	.
.	16BJk/	.
4FF# 4FFF#	(>4e# 4c## 4G#	.
4FF# 4FFF#	4f# 4d# 4F#	[
=73	=73	=73
*ped	*	*
4FF# 4FFF#\	4g#) 4e 4A#<	fz
*Xped	*	*
4F#\ 4FF#	(>8F#<L	.
.	8g# 8e 8A#<	.
4FF##X 4FFF##X\	8f#XM 8d# 8A#<	.
.	8eJ 8c#)	.
=74	=74	=74
*ped	*	*
4GG# 4GGG#\	8c##XL 8A#	.
.	8D#<J	<
4GG#\	4c## 4A#	.
*Xped	*	*
.	.	.
4D# 4GG#\	4d# 4B 4F#<	.
=75	=75	=75
*ped	*	*
4CC#	(>4d# 4B	[
!LO:TX:t=P:problem:note-position	!	!
4G# 4C#	8E#<XL	.
.	8d# 8B	.
*Xped	*	*
4G# 4C#	8d#m< 8B)	<
.	16gr	.
.	16c#Jk 16B	.
=76	=76	=76
*ped	*	*
4FF# 4FFF#	8g#L 8e	.
.	8bJ 8g#	.
4F#	4c# 4A#	.
4c# 4F#	4g# 4e 4A#	[
*Xped	*	*
.	.	.
!!LO:PB:g=original
=77	=77	=77
*ped	*	*
4BB 4BBB	4dd# 4f# 4d#	fz
4d# 4B 4F#	(>8f#L	.
.	8dd# 8b	.
4r	8.ee 8.cc#	.
*Xped	*	*
.	.	.
.	16ee#XJk 16cc##X	.
=78	=78	=78
*ped	*	*
4BB	8ee#XL 8cc##X	<
.	8g#J	.
4c##X 4B 4G#	4ee# 4cc##	.
*Xped	*	*
.	.	.
4d# 4B 4F#	4ff# 4dd# 4f#	[[
=79	=79	=79
.	8qg#/	.
*ped	*	*
4EE	4bb) 4ee 4g#	.
4g# 4e 4B 4G#	(8bL	.
.	8bb 8gg#	.
.	8qbb/	.
*Xped	*	*
4r	8aa# 8ff#	.
.	&(>8gg#J 8ee	.
=80	=80	=80
*ped	*	*
4BB	8ee#XL 8cc##X&))	.
.	16r	.
.	(>16g#Jk	.
4c##X 4B 4G#	4ee# 4cc##	.
*Xped	*	*
.	.	.
4d# 4B 4F#	4ff# 4dd# 4f#	.
=81	=81	=81
*ped	*	*
4F# 4FF#	4gg#) 4ee 4a#	.
4e 4c# 4F#	(>8f#L	.
.	8gg# 8ee 8a#	.
.	8qgg#/	.
*Xped	*	*
4FF#	8ff# 8dd# 8a#	.
.	8eeJ 8cc#	.
!!LO:LB:g=original
=82	=82	=82
*ped	*	*
4GG#	8cc##XL)/ 8a#	.
.	(>16r	.
.	16d#Jk	.
4B 4G# 4D#	4cc## 4a#/	.
*Xped	*	*
.	.	.
4B 4G# 4D#	4dd# 4b 4f#	.
=83	=83	=83
*	*^	*
*ped	*	*	*
4CC#	4ryy	4dd#) 4b	.
*clefG2	*	*	*
4g# 4c#	(>8e#XL	4e#X	.
.	8dd#	.	.
*Xped	*	*	*
.	.	.	.
*clefF4	*	*	*
4F#	8.dd#	4a# 4en^	.
.	.	.	.
.	16cc#Jk	.	.
*	*v	*v	*
=84	=84	=84
*ped	*	*
4BB	8gg#L) 8cc##X	.
.	16r	.
.	(>16g#Jk	.
4c##X 4B 4E#X	4gg# 4cc##	.
*Xped	*	*
.	.	.
4d# 4B 4F#	4ff# 4dd# 4f#	.
=85	=85	=85
*	*^	*
*ped	*	*	*
4CC#	4ryy	4dd#) 4b	.
*clefG2	*	*	*
4g# 4c#	(>8e#XL	4e#X	.
.	8dd#	.	.
*Xped	*	*	*
.	.	.	.
*clefF4	*	*	*
4F#	8.dd#	4a# 4en^	.
.	.	.	.
.	16cc#Jk	.	.
*	*v	*v	*
=86	=86	=86
*ped	*	*
4BB	8gg#L 8cc##X)	.
.	16r	.
.	(>16a#Jk	.
.	8qg#	.
4c##X 4B 4E#X	4gg# 4cc##	.
*Xped	*	*
.	.	.
4d# 4B 4F#	4ff# 4dd# 4f#	.
!!LO:LB:g=original
=87	=87	=87
*	*^	*
*	*	*^	*
*ped	*	*	*	*
4CC#	4dd#	2.b	4ryy	.
*clefG2	*	*	*	*
4g# 4c#	8.e#XL	.	2e#\	.
.	16dd#k	.	.	.
4r	8dd#	.	.	.
.	8cc#J	.	.	.
=88	=88	=88	=88	=88
2.r	4dd#	2.b	4ryy	.
.	8.e#XL	.	2e#\	.
.	16dd#k	.	.	.
.	8dd#	.	.	.
*Xped	*	*	*	*
.	.	.	.	.
.	8cc#J	.	.	.
*clefF4	*	*	*	*
=89	=89	=89	=89	=89
*ped	*	*	*	*
4FF# 4FFF#	4dd#	2.b	4ryy	>
*clefG2	*	*	*	*
4g# 4c#	8.enL	.	2e\	.
.	16dd#k	.	.	.
4r	8dd#	.	.	.
.	8cc#J	.	.	.
=90	=90	=90	=90	=90
!	!	!	!LO:TX:t=dim_:problem:dynamics with extention lines	!LO:HP:t=dim
2.r	4dd#	2.b	4ryy	] >
.	8.eL	.	2e\	.
.	16dd#k	.	.	.
.	8dd#	.	.	.
*Xped	*	*	*	*
.	.	.	.	.
.	8cc#J	.	.	.
*	*v	*v	*v	*
*clefF4	*	*
=91	=91	=91
*	*^	*
[>2.e [>2.c# [<2.F#	8a#L	4a#	.
.	8dd#	.	.
.	8cc#	8ryy	.
.	8an	4an	.
.	8dd#	.	.
.	8cc#J	8ryy	.
!!LO:LB:g=original
=92	=92	=92	=92
*^	*	*	*
2c#]\	2.e_> 2.F#_	8anL	4an	.
.	.	8dd#	.	.
.	.	8cc#	8ryy	.
.	.	8g#	4g#^<	.
4B\	.	8dd#	.	.
.	.	8cc#J	8ryy	.
*v	*v	*	*	*
=93	=93	=93	=93
2.e_ 2.B 2.F#_	8g#L	4g#	.
.	8dd#	.	.
.	8cc#	8ryy	.
.	8gn	4gn	.
.	8dd#	.	.
.	8cc#J	8ryy	.
=94	=94	=94	=94
*^	*	*	*
2.e_ 2.F#_<\	2B	8gnL	4gn	.
.	.	8dd#	.	.
.	.	8cc#	8ryy	.
.	.	8f#	4f#	.
.	4A#X\	8dd#	.	.
.	.	8cc#J	8ryy	]]
*v	*v	*	*	*
=95	=95	=95	=95
4e] 4A# 4F#]	8f#L	2ryy	pp
.	8dd#J	.	.
4r	2cc#^	.	.
.	.	.	.
[4F#	.	[>4f# [4e	.
=96	=96	=96	=96
2F#]	8bL	2f#] 2e]	.
.	8g#J	.	.
.	4a#	.	.
[4F# [4BB	4b	[>4d# [4B^	.
.	.	.	.
!!LO:LB:g=original
=97	=97	=97	=97
2F#] 2BB]	8a#L	2d#] 2B]	.
.	8f#J	.	.
.	4g#	.	.
[4F# [4BB	4a#	[>4d# [4B^	.
.	.	.	.
=98	=98	=98	=98
2F#] 2BB]	8g#L	2d#] 2B]	.
.	8eJ	.	.
.	4f#	.	.
[4F# [4BB	4g#	[>4d# [4B^	.
.	.	.	.
=99	=99	=99	=99
*^	*	*	*
2ryy	4F#] 4BB]	8g#L	4d#] 4B]	.
.	.	8f#J	.	.
.	4r	[<2d#	2ryy	.
*ped	*	*	*	*
4B 4F#	4BB 4BBB	.	.	.
*	*	*v	*v	*
=100	=100	=100	=100
4B 4F#	4BB 4BBB	2d#])	.
4B 4F#	4BB 4BBB	.	.
*Xped	*	*	*
4rB	4rGG	4ryy	.
=101	=101	=101	=101
4rB	4rGG	(<8g#L	.
.	.	8f#J	.
4rB	4rGG	2d#)	.
*ped	*	*	*
4B 4F#	4BB 4BBB	.	.
*v	*v	*	*
=102	=102	=102
4F#' 4BB	4b 4d# 4B	f
*clefG2	*	*
*	*8va	*
4ff#' 4b	4bbb 4ddd# 4bb	.
*	*X8va	*
*Xped	*	*
.	.	.
!	!LO:TX:B:t=FINE	!
4r	4r	.
==	==	==
*-	*-	*-
!!title: @{OTL}; @{OPS} @{ONM} publisher: @{PPR}
!!!RDF**kern: > = above
!!!RDF**kern: < = below
!!!RDF**kern: N = linked
!!!ENC: Andrzej Kubiczek
!!!END: 2021-01-08
